Suru++-Ubuntu/apps/scalable/google-earth.svg

<svg width="256" height="256" version="1.1" viewBox="0 0 67.73 67.73" xmlns="http://www.w3.org/2000/svg" xmlns:xlink="http://www.w3.org/1999/xlink">
 <defs>
  <linearGradient id="linearGradient1108" x1="296" x2="296" y1="-212" y2="236" gradientUnits="userSpaceOnUse">
   <stop style="stop-color:#ffffff" offset="0"/>
   <stop style="stop-color:#ffffff;stop-opacity:.09803922" offset=".125"/>
   <stop style="stop-color:#000000;stop-opacity:.09803922" offset=".925"/>
   <stop style="stop-color:#000000;stop-opacity:.49803922" offset="1"/>
  </linearGradient>
  <clipPath id="clipPath1082-3-1">
   <path d="M 361.9375,-212 C 507.2348,-212 528,-191.28677 528,-46.125 V 70.125 C 528,215.28618 507.2348,236 361.9375,236 H 214.0625 C 68.7652,236 48,215.28618 48,70.125 V -46.125 C 48,-191.28677 68.7652,-212 214.0625,-212 Z" style="fill:#8c59d9"/>
  </clipPath>
  <clipPath id="clipPath936">
   <path d="M 329.9375,16 C 475.2348,16 496,36.71323 496,181.875 v 116.25 C 496,443.28618 475.2348,464 329.9375,464 H 182.0625 C 36.7652,464 16,443.28618 16,298.125 V 181.875 C 16,36.71323 36.7652,16 182.0625,16 Z" style="fill:#438ae9"/>
  </clipPath>
  <linearGradient id="linearGradient1048" x1="24" x2="280" y1="28" y2="284" gradientTransform="matrix(.26970778 0 0 .26970778 -7.1289167 220.56049)" gradientUnits="userSpaceOnUse">
   <stop style="stop-color:#5884f4" offset="0"/>
   <stop style="stop-color:#80a3fa" offset="1"/>
  </linearGradient>
  <filter id="filter998" x="-.02" y="-.03" width="1.046" height="1.05" style="color-interpolation-filters:sRGB">
   <feGaussianBlur stdDeviation="2.32"/>
  </filter>
 </defs>
 <g transform="translate(0,-229.26666)">
  <path transform="matrix(.26970778 0 0 .26970778 -7.1289177 220.56049)" d="m188.96876 45.999995c72.64865 0 83.03125 10.356615 83.03125 82.937505v58.125c0 72.58059-10.3826 82.9375-83.03125 82.9375h-73.9375c-72.648654 0-83.031254-10.35691-83.031254-82.9375v-58.125c0-72.58089 10.3826-82.937505 83.031254-82.937505z" style="filter:url(#filter998);opacity:.2"/>
  <path d="m43.837426 232.42763c19.593907 0 22.394175 2.79326 22.394175 22.36889v15.67677c0 19.57555-2.800268 22.36888-22.394175 22.36888h-19.94152c-19.593906 0-22.394174-2.79333-22.394174-22.36888v-15.67677c0-19.57563 2.8002681-22.36889 22.394174-22.36889z" style="fill:url(#linearGradient1048)"/>
  <g transform="matrix(.13485389 0 0 .13485389 -.65593035 230.26997)" clip-path="url(#clipPath936)" style="enable-background:new;fill:#ffffff;opacity:.4">
   <g transform="matrix(1.5675676,0,0,1.5675676,-1030.1622,795.05406)" style="fill:#ffffff;opacity:.6">
    <path transform="matrix(1.2516207,0,0,1.2516207,660.27533,-511.93584)" d="m63.841797 239.55664c0.54755 0.03586 1.016558 0.09811 1.574219 0.13086 0.432838 0.02542 1.02196 0.01156 1.460937 0.03516l-0.039062-7.5918 26.503906-24.46484v-8.15625l12.232423-12.23243v-6.11523l6.11523-6.11719v-16.30859l-8.15429-8.15625h-16.310551l-8.154297-8.1543h-20.386718l-8.15625 8.1543v20.38867l16.365234 14.33984-0.054687 18.2793-6.115235 6.11719v26.50195l3.119141 3.34961z" style="fill:#ffffff"/>
    <path transform="matrix(1.2516207,0,0,1.2516207,660.27533,-511.93584)" d="m99.457031 81.263672-6.115234 6.117187h6.115234l2.039059 2.039063h2.03907l2.03906-2.039063-6.117189-6.117187z" style="fill:#ffffff"/>
    <path transform="matrix(1.2516207,0,0,1.2516207,660.27533,-511.93584)" d="m16.529297 30.957031c-0.106156 0.151452-0.243457 0.268102-0.347656 0.421875-1.211493 1.787873-2.291004 3.732049-3.251953 5.847656-0.96095 2.115608-1.802833 4.401935-2.539063 6.871094-0.7362301 2.469159-1.3669615 5.122176-1.9042969 7.970703-0.5373353 2.848527-0.9814382 5.892773-1.3457031 9.146485-0.3642649 3.253711-0.6482155 6.715678-0.8652344 10.40039-0.4340378 7.369426-0.5996094 15.626671-0.5996094 24.875v21.470706l8.1542968 8.15429h12.232422l20.388672 20.38868v-24.46485l12.232422-12.23242h8.154297l12.232421-12.232421h12.232422l-6.115234-6.117188 12.232422-14.269531-12.232422-12.232422h-18.349609v16.308594h-8.154297l-8.15625-8.154297v-8.154297l12.232422-12.232422h10.195312v-8.15625l-12.232422-12.232422h-20.388672v12.232422h-10.193359l-13.611328-13.609375z" style="fill:#ffffff"/>
    <path d="m881.72414-374.5h-30.62069l-17.86206 17.86207v25.51724l12.75862 12.75862h17.86207l7.65517 7.65518v7.65517l5.10345 5.10345v30.62069l19.37931 20.48276 32-32-0.34483-29.31035 25.51724-25.51724h-10.2069l-25.51724-25.51724v-10.2069h-30.62069z" style="fill:#ffffff"/>
    <path transform="matrix(1.2516207,0,0,1.2516207,660.27533,-511.93584)" d="m250.32422 117.96094v-21.470706c0-9.248329-0.16557-17.505574-0.59961-24.875-0.21702-3.684712-0.50097-7.146679-0.86523-10.40039-0.36427-3.253712-0.80837-6.297958-1.34571-9.146485-0.53733-2.848527-1.16806-5.501544-1.90429-7.970703-0.73624-2.469159-1.57812-4.755486-2.53907-6.871094-0.61175-1.346824-1.35892-2.510556-2.07031-3.722656l-2.9082 2.908203h-12.23242l-12.23243 12.232422-8.15429-8.154297h-24.46485l-12.23242 12.232422v10.19336h12.23242v-6.117188h8.1543v8.15625l-4.07813 4.076172-16.30859 0.275391-6.11719 5.841797h-8.15429v8.154296l-6.11719 6.117188v12.230468h12.23242l8.15625-8.154296h8.1543v4.078125l8.15429 8.154301h4.07813v-4.07813l-8.1543-8.154296h8.1543l8.1543 8.154296h10.19336l-6.11524-6.115234 6.11524-6.115234h6.11718l6.11524 6.115234h-6.11524l-6.11718 6.115234 6.00585 6.00586 0.11133 6.22656h-8.15429l24.46484 24.46485h4.07617l4.07813-4.07618 8.15429-8.15625-8.15429-8.15429h12.23242z" style="fill:#ffffff"/>
    <path d="m856.2069-422.98275v-7.65518l7.65518-7.65517v15.31035z" style="fill:#ffffff"/>
    <path d="m935.31035-272.43103v-16l10.2069-9.51724v25.51724z" style="fill:#ffffff"/>
    <path transform="matrix(1.2516207,0,0,1.2516207,660.27533,-511.93584)" d="m136.1543 11.947266h-45.839847c-0.785695 0-1.341812 0.048341-2.113281 0.050781l-7.091797 8.103515 12.232422 12.232422v12.783204l14.271483 15.759765h8.1543v-8.154297l12.23242-12.232422v-8.15625l8.1543-8.154296v-12.232422z" style="fill:#ffffff"/>
    <path transform="matrix(1.2516207,0,0,1.2516207,660.27533,-511.93584)" d="m66.837891 12.511719c-0.427072 0.023007-1.000617 0.008466-1.421875 0.033203-3.688381 0.216589-7.155044 0.499672-10.41211 0.863281s-6.304674 0.807305-9.15625 1.34375c-2.546554 0.479064-4.882334 1.062829-7.125 1.699219l7.728516 7.728516h20.386719v-11.667969z" style="fill:#ffffff"/>
    <path d="m817.93104-440.84482h7.65518l7.65517 7.65517-15.31035 1e-5z" style="fill:#ffffff"/>
    <path d="m749.03449-356.63794h-7.65518l-7.65517 7.65517 15.31035 1e-5z" style="fill:#ffffff"/>
   </g>
  </g>
  <path transform="matrix(.13485389 0 0 .13485389 -4.9712551 261.01666)" d="M 361.9375,-212 C 507.2348,-212 528,-191.28677 528,-46.125 V 70.125 C 528,215.28618 507.2348,236 361.9375,236 H 214.0625 C 68.7652,236 48,215.28618 48,70.125 V -46.125 C 48,-191.28677 68.7652,-212 214.0625,-212 Z" clip-path="url(#clipPath1082-3-1)" style="fill:none;opacity:.4;stroke-linecap:round;stroke-linejoin:round;stroke-width:8;stroke:url(#linearGradient1108)"/>
  <g transform="translate(.89934941 .44249059)">
   <g transform="matrix(.21150029 0 0 .21608961 7.2502553 237.94867)" style="opacity:.2">
    <path d="m120 4.5c-14.53 0-28.434 2.691-41.244 7.591 4.917-0.674 10.804-1.091 17.869-1.091 40.294 0 63.143 17.536 79.75 36.125 11.08 12.406 30.33 49.375 44.62 49.375 4.159-0.36 7.427-3.585 9.998-8.523-13.9-48.21-58.33-83.477-111.01-83.477z"/>
    <path d="m49.333 64.333c39.021 0 107.68 82.677 180.63 91.074 1.861-5.784 3.285-11.765 4.219-17.905-33.16-7.22-74.85-45.921-89.85-60.5-23.44-22.791-45.314-45.667-75.331-45.667-10.24 0-19.639 1.762-27.772 4.208-15.064 14.055-26.365 32.087-32.224 52.428 12.038-12.033 25.795-23.636 40.329-23.636z"/>
    <path d="m165.12 194.12c-66.995 0-117.62-36.12-135.62-36.12-7.34 0-11.575 5.128-14.018 11.201 11.564 24.521 31.501 44.314 56.127 55.695-3.472-8.922-5.566-20.729 7.682-20.729 11.708 0 23.375 10.083 66.583 10.083 19.729 0 37.899-4.116 51.258-8.287 7.072-6.35 13.359-13.557 18.691-21.462-12.762 4.544-31.348 9.624-50.698 9.624z"/>
   </g>
   <g transform="matrix(.21150029 0 0 .21608961 7.2502553 236.86607)" style="fill:#ffffff">
    <path d="m120 4.5c-14.53 0-28.434 2.691-41.244 7.591 4.917-0.674 10.804-1.091 17.869-1.091 40.294 0 63.143 17.536 79.75 36.125 11.08 12.406 30.33 49.375 44.62 49.375 4.159-0.36 7.427-3.585 9.998-8.523-13.89-48.21-58.32-83.477-111-83.477z"/>
    <path d="m49.333 64.333c39.021 0 107.68 82.677 180.63 91.074 1.861-5.784 3.285-11.765 4.219-17.905-33.16-7.22-74.85-45.921-89.85-60.5-23.44-22.791-45.314-45.667-75.331-45.667-10.24 0-19.639 1.762-27.772 4.208-15.063 14.055-26.364 32.087-32.223 52.428 12.038-12.033 25.795-23.636 40.329-23.636z"/>
    <path d="m165.12 194.12c-66.995 0-117.62-36.12-135.62-36.12-7.34 0-11.575 5.128-14.018 11.201 11.564 24.521 31.501 44.314 56.127 55.695-3.472-8.922-5.566-20.729 7.682-20.729 11.708 0 23.375 10.083 66.583 10.083 19.729 0 37.899-4.116 51.258-8.287 7.072-6.35 13.359-13.557 18.691-21.462-12.762 4.544-31.348 9.624-50.698 9.624z"/>
   </g>
  </g>
 </g>
</svg>

<svg xmlns="http://www.w3.org/2000/svg" xmlns:xlink="http://www.w3.org/1999/xlink" width="256" height="256" version="1.1" viewBox="0 0 67.73 67.73">
 <defs>
  <linearGradient id="linearGradient3650-7-9">
   <stop style="stop-color:#5884f4" offset="0"/>
   <stop offset="1" style="stop-color:#80a3fa"/>
  </linearGradient>
  <linearGradient id="linearGradient1108" x1="296" x2="296" y1="-212" y2="236" gradientUnits="userSpaceOnUse" xlink:href="#linearGradient1013"/>
  <linearGradient id="linearGradient1013">
   <stop offset="0" style="stop-color:#ffffff"/>
   <stop style="stop-color:#ffffff;stop-opacity:0.09803922" offset=".125"/>
   <stop style="stop-color:#000000;stop-opacity:0.09803922" offset=".925"/>
   <stop offset="1" style="stop-color:#000000;stop-opacity:0.49803922"/>
  </linearGradient>
  <clipPath id="clipPath1082-3-1" clipPathUnits="userSpaceOnUse">
   <path d="M 361.9375,-212 C 507.2348,-212 528,-191.28677 528,-46.125 V 70.125 C 528,215.28618 507.2348,236 361.9375,236 H 214.0625 C 68.7652,236 48,215.28618 48,70.125 V -46.125 C 48,-191.28677 68.7652,-212 214.0625,-212 Z" style="fill:#8c59d9"/>
  </clipPath>
  <clipPath id="clipPath936" clipPathUnits="userSpaceOnUse">
   <path d="M 329.9375,16 C 475.2348,16 496,36.71323 496,181.875 v 116.25 C 496,443.28618 475.2348,464 329.9375,464 H 182.0625 C 36.7652,464 16,443.28618 16,298.125 V 181.875 C 16,36.71323 36.7652,16 182.0625,16 Z" style="fill:#438ae9"/>
  </clipPath>
  <linearGradient id="linearGradient1048" x1="24" x2="280" y1="28" y2="284" gradientTransform="matrix(0.26970778,0,0,0.26970778,-7.1289167,220.56049)" gradientUnits="userSpaceOnUse" xlink:href="#linearGradient3650-7-9"/>
  <filter style="color-interpolation-filters:sRGB" id="filter998" width="1.046" height="1.05" x="-.02" y="-.03">
   <feGaussianBlur stdDeviation="2.32"/>
  </filter>
 </defs>
 <g transform="translate(0,-229.26666)">
  <path d="m 188.96876,45.999995 c 72.64865,0 83.03125,10.356615 83.03125,82.937505 v 58.125 c 0,72.58059 -10.3826,82.9375 -83.03125,82.9375 h -73.9375 C 42.382606,270 32.000006,259.64309 32.000006,187.0625 v -58.125 c 0,-72.58089 10.3826,-82.937505 83.031254,-82.937505 z" transform="matrix(0.26970778,0,0,0.26970778,-7.1289177,220.56049)" style="opacity:0.2;filter:url(#filter998)"/>
  <path style="fill:url(#linearGradient1048)" d="m 43.837426,232.42763 c 19.593907,0 22.394175,2.79326 22.394175,22.36889 v 15.67677 c 0,19.57555 -2.800268,22.36888 -22.394175,22.36888 h -19.94152 c -19.593906,0 -22.3941741,-2.79333 -22.3941741,-22.36888 v -15.67677 c 0,-19.57563 2.8002681,-22.36889 22.3941741,-22.36889 z"/>
  <g style="opacity:0.4;fill:#ffffff;enable-background:new" clip-path="url(#clipPath936)" transform="matrix(0.13485389,0,0,0.13485389,-0.65593035,230.26997)">
   <g transform="matrix(1.5675676,0,0,1.5675676,-1030.1622,795.05406)" style="opacity:0.6;fill:#ffffff">
    <path style="fill:#ffffff" d="M 63.841797 239.55664 C 64.389347 239.5925 64.858355 239.65475 65.416016 239.6875 C 65.848854 239.71292 66.437976 239.69906 66.876953 239.72266 L 66.837891 232.13086 L 93.341797 207.66602 L 93.341797 199.50977 L 105.57422 187.27734 L 105.57422 181.16211 L 111.68945 175.04492 L 111.68945 158.73633 L 103.53516 150.58008 L 87.224609 150.58008 L 79.070312 142.42578 L 58.683594 142.42578 L 50.527344 150.58008 L 50.527344 170.96875 L 66.892578 185.30859 L 66.837891 203.58789 L 60.722656 209.70508 L 60.722656 236.20703 L 63.841797 239.55664 z" transform="matrix(1.2516207,0,0,1.2516207,660.27533,-511.93584)"/>
    <path style="fill:#ffffff" d="M 99.457031 81.263672 L 93.341797 87.380859 L 99.457031 87.380859 L 101.49609 89.419922 L 103.53516 89.419922 L 105.57422 87.380859 L 99.457031 81.263672 z" transform="matrix(1.2516207,0,0,1.2516207,660.27533,-511.93584)"/>
    <path style="fill:#ffffff" d="M 16.529297 30.957031 C 16.423141 31.108483 16.28584 31.225133 16.181641 31.378906 C 14.970148 33.166779 13.890637 35.110955 12.929688 37.226562 C 11.968738 39.34217 11.126855 41.628497 10.390625 44.097656 C 9.6543949 46.566815 9.0236635 49.219832 8.4863281 52.068359 C 7.9489928 54.916886 7.5048899 57.961132 7.140625 61.214844 C 6.7763601 64.468555 6.4924095 67.930522 6.2753906 71.615234 C 5.8413528 78.98466 5.6757812 87.241905 5.6757812 96.490234 L 5.6757812 117.96094 L 13.830078 126.11523 L 26.0625 126.11523 L 46.451172 146.50391 L 46.451172 122.03906 L 58.683594 109.80664 L 66.837891 109.80664 L 79.070312 97.574219 L 91.302734 97.574219 L 85.1875 91.457031 L 97.419922 77.1875 L 85.1875 64.955078 L 66.837891 64.955078 L 66.837891 81.263672 L 58.683594 81.263672 L 50.527344 73.109375 L 50.527344 64.955078 L 62.759766 52.722656 L 72.955078 52.722656 L 72.955078 44.566406 L 60.722656 32.333984 L 40.333984 32.333984 L 40.333984 44.566406 L 30.140625 44.566406 L 16.529297 30.957031 z" transform="matrix(1.2516207,0,0,1.2516207,660.27533,-511.93584)"/>
    <path d="m 881.72414,-374.5 h -30.62069 l -17.86206,17.86207 v 25.51724 l 12.75862,12.75862 h 17.86207 l 7.65517,7.65518 v 7.65517 l 5.10345,5.10345 v 30.62069 l 19.37931,20.48276 32,-32 -0.34483,-29.31035 25.51724,-25.51724 h -10.2069 l -25.51724,-25.51724 v -10.2069 h -30.62069 z" style="fill:#ffffff"/>
    <path style="fill:#ffffff" d="M 250.32422 117.96094 L 250.32422 96.490234 C 250.32422 87.241905 250.15865 78.98466 249.72461 71.615234 C 249.50759 67.930522 249.22364 64.468555 248.85938 61.214844 C 248.49511 57.961132 248.05101 54.916886 247.51367 52.068359 C 246.97634 49.219832 246.34561 46.566815 245.60938 44.097656 C 244.87314 41.628497 244.03126 39.34217 243.07031 37.226562 C 242.45856 35.879738 241.71139 34.716006 241 33.503906 L 238.0918 36.412109 L 225.85938 36.412109 L 213.62695 48.644531 L 205.47266 40.490234 L 181.00781 40.490234 L 168.77539 52.722656 L 168.77539 62.916016 L 181.00781 62.916016 L 181.00781 56.798828 L 189.16211 56.798828 L 189.16211 64.955078 L 185.08398 69.03125 L 168.77539 69.306641 L 162.6582 75.148438 L 154.50391 75.148438 L 154.50391 83.302734 L 148.38672 89.419922 L 148.38672 101.65039 L 160.61914 101.65039 L 168.77539 93.496094 L 176.92969 93.496094 L 176.92969 97.574219 L 185.08398 105.72852 L 189.16211 105.72852 L 189.16211 101.65039 L 181.00781 93.496094 L 189.16211 93.496094 L 197.31641 101.65039 L 207.50977 101.65039 L 201.39453 95.535156 L 207.50977 89.419922 L 213.62695 89.419922 L 219.74219 95.535156 L 213.62695 95.535156 L 207.50977 101.65039 L 213.51562 107.65625 L 213.62695 113.88281 L 205.47266 113.88281 L 229.9375 138.34766 L 234.01367 138.34766 L 238.0918 134.27148 L 246.24609 126.11523 L 238.0918 117.96094 L 250.32422 117.96094 z" transform="matrix(1.2516207,0,0,1.2516207,660.27533,-511.93584)"/>
    <path d="m 856.2069,-422.98275 v -7.65518 l 7.65518,-7.65517 v 15.31035 z" style="fill:#ffffff"/>
    <path style="fill:#ffffff" d="m 935.31035,-272.43103 v -16 l 10.2069,-9.51724 v 25.51724 z"/>
    <path style="fill:#ffffff" d="M 136.1543 11.947266 L 90.314453 11.947266 C 89.528758 11.947266 88.972641 11.995607 88.201172 11.998047 L 81.109375 20.101562 L 93.341797 32.333984 L 93.341797 45.117188 L 107.61328 60.876953 L 115.76758 60.876953 L 115.76758 52.722656 L 128 40.490234 L 128 32.333984 L 136.1543 24.179688 L 136.1543 11.947266 z" transform="matrix(1.2516207,0,0,1.2516207,660.27533,-511.93584)"/>
    <path style="fill:#ffffff" d="M 66.837891 12.511719 C 66.410819 12.534726 65.837274 12.520185 65.416016 12.544922 C 61.727635 12.761511 58.260972 13.044594 55.003906 13.408203 C 51.74684 13.771812 48.699232 14.215508 45.847656 14.751953 C 43.301102 15.231017 40.965322 15.814782 38.722656 16.451172 L 46.451172 24.179688 L 66.837891 24.179688 L 66.837891 12.511719 z" transform="matrix(1.2516207,0,0,1.2516207,660.27533,-511.93584)"/>
    <path style="fill:#ffffff" d="m 817.93104,-440.84482 h 7.65518 l 7.65517,7.65517 -15.31035,10e-6 z"/>
    <path d="m 749.03449,-356.63794 h -7.65518 l -7.65517,7.65517 15.31035,1e-5 z" style="fill:#ffffff"/>
   </g>
  </g>
  <path d="M 361.9375,-212 C 507.2348,-212 528,-191.28677 528,-46.125 V 70.125 C 528,215.28618 507.2348,236 361.9375,236 H 214.0625 C 68.7652,236 48,215.28618 48,70.125 V -46.125 C 48,-191.28677 68.7652,-212 214.0625,-212 Z" clip-path="url(#clipPath1082-3-1)" transform="matrix(0.13485389,0,0,0.13485389,-4.9712551,261.01666)" style="opacity:0.4;fill:none;stroke:url(#linearGradient1108);stroke-width:8;stroke-linecap:round;stroke-linejoin:round"/>
  <g transform="translate(0.89934941,0.44249059)">
   <g transform="matrix(0.21150029,0,0,0.21608961,7.2502553,237.94867)" style="opacity:0.2">
    <path d="M 120,4.5 C 105.47,4.5 91.566,7.191 78.756,12.091 83.673,11.417 89.56,11 96.625,11 c 40.294,0 63.143,17.536 79.75,36.125 11.08,12.406 30.33,49.375 44.62,49.375 4.159,-0.36 7.427,-3.585 9.998,-8.523 C 217.093,39.767 172.663,4.5 119.983,4.5 Z"/>
    <path d="m 49.333,64.333 c 39.021,0 107.68,82.677 180.63,91.074 1.861,-5.784 3.285,-11.765 4.219,-17.905 -33.16,-7.22 -74.85,-45.921 -89.85,-60.5 -23.44,-22.791 -45.314,-45.667 -75.331,-45.667 -10.24,0 -19.639,1.762 -27.772,4.208 C 26.165,49.598 14.864,67.63 9.005,87.971 21.043,75.938 34.8,64.335 49.334,64.335 Z"/>
    <path d="M 165.12,194.12 C 98.125,194.12 47.5,158 29.5,158 c -7.34,0 -11.575,5.128 -14.018,11.201 11.564,24.521 31.501,44.314 56.127,55.695 -3.472,-8.922 -5.566,-20.729 7.682,-20.729 11.708,0 23.375,10.083 66.583,10.083 19.729,0 37.899,-4.116 51.258,-8.287 7.072,-6.35 13.359,-13.557 18.691,-21.462 -12.762,4.544 -31.348,9.624 -50.698,9.624 z"/>
   </g>
   <g transform="matrix(0.21150029,0,0,0.21608961,7.2502553,236.86607)" style="fill:#ffffff">
    <path d="M 120,4.5 C 105.47,4.5 91.566,7.191 78.756,12.091 83.673,11.417 89.56,11 96.625,11 c 40.294,0 63.143,17.536 79.75,36.125 11.08,12.406 30.33,49.375 44.62,49.375 4.159,-0.36 7.427,-3.585 9.998,-8.523 C 217.103,39.767 172.673,4.5 119.993,4.5 Z"/>
    <path d="m 49.333,64.333 c 39.021,0 107.68,82.677 180.63,91.074 1.861,-5.784 3.285,-11.765 4.219,-17.905 -33.16,-7.22 -74.85,-45.921 -89.85,-60.5 -23.44,-22.791 -45.314,-45.667 -75.331,-45.667 -10.24,0 -19.639,1.762 -27.772,4.208 C 26.166,49.598 14.865,67.63 9.006,87.971 21.044,75.938 34.801,64.335 49.335,64.335 Z"/>
    <path d="M 165.12,194.12 C 98.125,194.12 47.5,158 29.5,158 c -7.34,0 -11.575,5.128 -14.018,11.201 11.564,24.521 31.501,44.314 56.127,55.695 -3.472,-8.922 -5.566,-20.729 7.682,-20.729 11.708,0 23.375,10.083 66.583,10.083 19.729,0 37.899,-4.116 51.258,-8.287 7.072,-6.35 13.359,-13.557 18.691,-21.462 -12.762,4.544 -31.348,9.624 -50.698,9.624 z"/>
   </g>
  </g>
 </g>
</svg>
